build/img/sprite.svg

<svg xmlns="http://www.w3.org/2000/svg" xmlns:xlink="http://www.w3.org/1999/xlink"><symbol id="burger" viewBox="0 0 33 31"><g fill="none"><path d="M30.1666 24.8958C30.8247 24.8961 31.4574 25.1496 31.9337 25.6038C32.4099 26.0579 32.6932 26.6779 32.7249 27.3352C32.7565 27.9925 32.534 28.6368 32.1035 29.1345C31.6731 29.6323 31.0676 29.9454 30.4126 30.0089L30.1666 30.0208H2.83325C2.17517 30.0205 1.54244 29.767 1.06617 29.3129C0.589905 28.8587 0.306606 28.2388 0.274981 27.5815C0.243356 26.9241 0.46583 26.2799 0.896302 25.7821C1.32677 25.2843 1.93224 24.9713 2.58725 24.9078L2.83325 24.8958H30.1666ZM30.1666 12.9375C30.8462 12.9375 31.498 13.2075 31.9785 13.688C32.4591 14.1686 32.7291 14.8204 32.7291 15.5C32.7291 16.1796 32.4591 16.8314 31.9785 17.312C31.498 17.7925 30.8462 18.0625 30.1666 18.0625H2.83325C2.15363 18.0625 1.50185 17.7925 1.02129 17.312C0.540729 16.8314 0.270752 16.1796 0.270752 15.5C0.270752 14.8204 0.540729 14.1686 1.02129 13.688C1.50185 13.2075 2.15363 12.9375 2.83325 12.9375H30.1666ZM30.1666 0.979156C30.8462 0.979156 31.498 1.24913 31.9785 1.7297C32.4591 2.21026 32.7291 2.86204 32.7291 3.54166C32.7291 4.22127 32.4591 4.87306 31.9785 5.35362C31.498 5.83418 30.8462 6.10416 30.1666 6.10416H2.83325C2.15363 6.10416 1.50185 5.83418 1.02129 5.35362C0.540729 4.87306 0.270752 4.22127 0.270752 3.54166C0.270752 2.86204 0.540729 2.21026 1.02129 1.7297C1.50185 1.24913 2.15363 0.979156 2.83325 0.979156H30.1666Z" fill="currentColor"/></g></symbol><symbol id="email" viewBox="0 0 16 13"><g fill="none"><path d="M14.75 10.85a.275.275 0 0 1-.268.267H2.162a.275.275 0 0 1-.269-.268V4.421c.176.2.369.385.578.552 1.197.92 2.402 1.858 3.566 2.83.627.527 1.406 1.171 2.276 1.171h.017c.87 0 1.65-.644 2.277-1.172a114.812 114.812 0 0 1 3.566-2.829c.209-.167.402-.352.577-.552v6.428Zm0-8.798c0 .711-.686 1.64-1.23 2.067a517.902 517.902 0 0 0-3.357 2.654c-.443.36-1.247 1.13-1.833 1.13h-.017c-.586 0-1.39-.77-1.833-1.13a518.446 518.446 0 0 0-3.356-2.654c-.754-.594-1.23-1.423-1.23-2.377 0-.142.125-.268.267-.268h12.321c.319 0 .268.368.268.578Zm1.072-.31c0-.737-.603-1.34-1.34-1.34H2.162c-.738 0-1.34.603-1.34 1.34v9.107c0 .737.602 1.34 1.34 1.34h12.32c.737 0 1.34-.603 1.34-1.34V1.742Z" fill="#3E9CDC"/></g></symbol><symbol id="file" viewBox="0 0 18 21"><g fill="none"><path d="M16.8125 4.60899L13.3304 1.12685C12.9174 0.713902 12.0915 0.36792 11.5 0.36792H1.50002C0.9085 0.36792 0.428589 0.847831 0.428589 1.43935V19.2965C0.428589 19.888 0.9085 20.3679 1.50002 20.3679H16.5C17.0915 20.3679 17.5714 19.888 17.5714 19.2965V6.43935C17.5714 5.84783 17.2255 5.02194 16.8125 4.60899ZM11.8572 1.88578C12.0469 1.95274 12.2366 2.05319 12.3148 2.13131L15.8081 5.62462C15.8862 5.70274 15.9866 5.89247 16.0536 6.08221H11.8572V1.88578ZM16.1429 18.9394H1.85716V1.79649H10.4286V6.43935C10.4286 7.03087 10.9085 7.51078 11.5 7.51078H16.1429V18.9394ZM4.7143 9.29649V10.0108C4.7143 10.2117 4.87055 10.3679 5.07145 10.3679H12.9286C13.1295 10.3679 13.2857 10.2117 13.2857 10.0108V9.29649C13.2857 9.0956 13.1295 8.93935 12.9286 8.93935H5.07145C4.87055 8.93935 4.7143 9.0956 4.7143 9.29649ZM12.9286 11.7965H5.07145C4.87055 11.7965 4.7143 11.9527 4.7143 12.1536V12.8679C4.7143 13.0688 4.87055 13.2251 5.07145 13.2251H12.9286C13.1295 13.2251 13.2857 13.0688 13.2857 12.8679V12.1536C13.2857 11.9527 13.1295 11.7965 12.9286 11.7965ZM12.9286 14.6536H5.07145C4.87055 14.6536 4.7143 14.8099 4.7143 15.0108V15.7251C4.7143 15.926 4.87055 16.0822 5.07145 16.0822H12.9286C13.1295 16.0822 13.2857 15.926 13.2857 15.7251V15.0108C13.2857 14.8099 13.1295 14.6536 12.9286 14.6536Z" fill="#272733"/></g></symbol><symbol id="icon-close" viewBox="0 0 20 20"><g fill="none"><path d="M.293 18.291a1 1 0 101.414 1.414L10 11.413l8.292 8.292a1 1 0 101.414-1.414l-8.292-8.292 8.292-8.292A1 1 0 1018.291.293L9.999 8.585 1.707.293A1 1 0 10.293 1.707L8.585 10 .293 18.291z"/></g></symbol><symbol id="vk" viewBox="0 0 12 14"><g fill="none"><path d="M11.18 9.286c0 .65-.123 1.222-.369 1.714s-.577.9-.993 1.222a4.598 4.598 0 0 1-1.626.826c-.586.164-1.333.246-2.241.246H.713V.207h4.623c.96 0 1.687.038 2.18.114.497.07.963.223 1.397.457.469.252.817.59 1.046 1.011.234.422.351.908.351 1.46 0 .638-.16 1.206-.483 1.704a2.793 2.793 0 0 1-1.318 1.099v.07c.808.17 1.456.519 1.942 1.046.486.522.73 1.228.73 2.118ZM6.97 3.907c0-.21-.055-.427-.167-.65a.961.961 0 0 0-.5-.483 2.042 2.042 0 0 0-.774-.15 36.06 36.06 0 0 0-1.318-.017h-.229v2.768h.413c.563 0 .955-.006 1.178-.017.229-.012.463-.074.703-.185.264-.123.445-.293.545-.51.1-.217.15-.469.15-.756Zm.827 5.318c0-.405-.082-.721-.246-.95-.165-.228-.41-.4-.739-.518-.199-.076-.474-.117-.826-.123a43.437 43.437 0 0 0-1.397-.018h-.607v3.279h.176c.855 0 1.447-.006 1.775-.018.328-.012.662-.09 1.002-.237.3-.13.516-.317.65-.563.141-.252.212-.536.212-.852Z" fill="#3E9CDC"/></g></symbol></svg>

<svg xmlns="http://www.w3.org/2000/svg" xmlns:xlink="http://www.w3.org/1999/xlink"><symbol id="email" viewBox="0 0 16 13"><g fill="none">
<path d="M14.7503 10.8491C14.7503 10.9914 14.6248 11.117 14.4825 11.117H2.16106C2.01876 11.117 1.89321 10.9914 1.89321 10.8491V4.42057C2.06899 4.62146 2.26151 4.80561 2.47077 4.97302C3.66776 5.89378 4.87312 6.83128 6.03662 7.80226C6.66441 8.32961 7.44287 8.97414 8.31341 8.97414H8.32178H8.33015C9.20068 8.97414 9.97914 8.32961 10.6069 7.80226C11.7704 6.83128 12.9758 5.89378 14.1728 4.97302C14.382 4.80561 14.5746 4.62146 14.7503 4.42057V10.8491ZM14.7503 2.05171C14.7503 2.7632 14.064 3.69233 13.5199 4.11923C12.3982 4.99813 11.2766 5.88541 10.1633 6.77269C9.71966 7.13262 8.91609 7.90271 8.33015 7.90271H8.32178H8.31341C7.72747 7.90271 6.9239 7.13262 6.48026 6.77269C5.36698 5.88541 4.24533 4.99813 3.12367 4.11923C2.37033 3.52492 1.89321 2.69624 1.89321 1.742C1.89321 1.5997 2.01876 1.47414 2.16106 1.47414H14.4825C14.8006 1.47414 14.7503 1.84244 14.7503 2.05171ZM15.8218 1.742C15.8218 1.00539 15.2191 0.40271 14.4825 0.40271H2.16106C1.42446 0.40271 0.821777 1.00539 0.821777 1.742V10.8491C0.821777 11.5857 1.42446 12.1884 2.16106 12.1884H14.4825C15.2191 12.1884 15.8218 11.5857 15.8218 10.8491V1.742Z" fill="#3E9CDC"/>
</g></symbol><symbol id="file" viewBox="0 0 18 21"><g fill="none">
<path d="M16.8125 4.60899L13.3304 1.12685C12.9174 0.713902 12.0915 0.36792 11.5 0.36792H1.50002C0.9085 0.36792 0.428589 0.847831 0.428589 1.43935V19.2965C0.428589 19.888 0.9085 20.3679 1.50002 20.3679H16.5C17.0915 20.3679 17.5714 19.888 17.5714 19.2965V6.43935C17.5714 5.84783 17.2255 5.02194 16.8125 4.60899ZM11.8572 1.88578C12.0469 1.95274 12.2366 2.05319 12.3148 2.13131L15.8081 5.62462C15.8862 5.70274 15.9866 5.89247 16.0536 6.08221H11.8572V1.88578ZM16.1429 18.9394H1.85716V1.79649H10.4286V6.43935C10.4286 7.03087 10.9085 7.51078 11.5 7.51078H16.1429V18.9394ZM4.7143 9.29649V10.0108C4.7143 10.2117 4.87055 10.3679 5.07145 10.3679H12.9286C13.1295 10.3679 13.2857 10.2117 13.2857 10.0108V9.29649C13.2857 9.0956 13.1295 8.93935 12.9286 8.93935H5.07145C4.87055 8.93935 4.7143 9.0956 4.7143 9.29649ZM12.9286 11.7965H5.07145C4.87055 11.7965 4.7143 11.9527 4.7143 12.1536V12.8679C4.7143 13.0688 4.87055 13.2251 5.07145 13.2251H12.9286C13.1295 13.2251 13.2857 13.0688 13.2857 12.8679V12.1536C13.2857 11.9527 13.1295 11.7965 12.9286 11.7965ZM12.9286 14.6536H5.07145C4.87055 14.6536 4.7143 14.8099 4.7143 15.0108V15.7251C4.7143 15.926 4.87055 16.0822 5.07145 16.0822H12.9286C13.1295 16.0822 13.2857 15.926 13.2857 15.7251V15.0108C13.2857 14.8099 13.1295 14.6536 12.9286 14.6536Z" fill="#272733"/>
</g></symbol><symbol id="icon-close" viewBox="0 0 20 20"><g fill="none"><path d="M.293 18.291a1 1 0 101.414 1.414L10 11.413l8.292 8.292a1 1 0 101.414-1.414l-8.292-8.292 8.292-8.292A1 1 0 1018.291.293L9.999 8.585 1.707.293A1 1 0 10.293 1.707L8.585 10 .293 18.291z"/></g></symbol><symbol id="vk" viewBox="0 0 12 14"><g fill="none">
<path d="M11.1804 9.28625C11.1804 9.93665 11.0574 10.5079 10.8113 11.0001C10.5652 11.4923 10.2341 11.8995 9.81812 12.2218C9.32593 12.6085 8.78394 12.8839 8.19214 13.048C7.6062 13.212 6.85913 13.2941 5.95093 13.2941H0.712646V0.207153H5.33569C6.29663 0.207153 7.02319 0.245239 7.51538 0.321411C8.01343 0.391724 8.47925 0.544067 8.91284 0.778442C9.38159 1.0304 9.73022 1.36731 9.95874 1.78918C10.1931 2.21106 10.3103 2.69739 10.3103 3.24817C10.3103 3.88684 10.1492 4.4552 9.8269 4.95325C9.5105 5.45129 9.07104 5.8175 8.50854 6.05188V6.12219C9.31714 6.29211 9.9646 6.64075 10.4509 7.16809C10.9373 7.68958 11.1804 8.39563 11.1804 9.28625ZM6.97046 3.90735C6.97046 3.69641 6.91479 3.47961 6.80347 3.25696C6.698 3.0343 6.53101 2.87317 6.30249 2.77356C6.08569 2.67981 5.82788 2.63 5.52905 2.62415C5.23608 2.61243 4.79663 2.60657 4.21069 2.60657H3.98218V5.37512H4.39526C4.95776 5.37512 5.35034 5.36926 5.573 5.35754C5.80151 5.34583 6.03589 5.2843 6.27612 5.17297C6.53979 5.04993 6.72144 4.88 6.82104 4.66321C6.92065 4.44641 6.97046 4.19446 6.97046 3.90735ZM7.79663 9.22473C7.79663 8.82043 7.7146 8.50403 7.55054 8.27551C7.38647 8.047 7.14038 7.87415 6.81226 7.75696C6.61304 7.68079 6.33765 7.63977 5.98608 7.63391C5.64038 7.62219 5.17456 7.61633 4.58862 7.61633H3.98218V10.8947H4.15796C5.01343 10.8947 5.60522 10.8888 5.93335 10.8771C6.26147 10.8654 6.59546 10.7863 6.9353 10.6398C7.23413 10.5109 7.45093 10.3234 7.58569 10.0773C7.72632 9.82532 7.79663 9.54114 7.79663 9.22473Z" fill="#3E9CDC"/>
</g></symbol></svg>
